packages/react-icons/icons/truck.svg

<svg width="24" height="24" viewBox="0 0 24 24" xmlns="http://www.w3.org/2000/svg"><path fill-rule="evenodd" clip-rule="evenodd" d="M3.89902 5.16992C3.66033 5.16992 3.43141 5.26474 3.26262 5.43353C3.09384 5.60231 2.99902 5.83123 2.99902 6.06993L2.99909 14.96C2.9991 15.4571 3.40204 15.86 3.89909 15.86H4.76326C4.7525 15.9574 4.74697 16.0564 4.74697 16.1566C4.74697 17.6366 5.95048 18.8304 7.42768 18.8304C8.90488 18.8304 10.1084 17.6366 10.1084 16.1566C10.1084 16.0564 10.1029 15.9574 10.0921 15.86H14.7652C14.7545 15.9574 14.7489 16.0564 14.7489 16.1566C14.7489 17.6366 15.9524 18.8304 17.4296 18.8304C18.9068 18.8304 20.1103 17.6366 20.1103 16.1566C20.1103 16.0564 20.1048 15.9574 20.0941 15.86H20.1008C20.3395 15.86 20.5684 15.7652 20.7372 15.5964C20.906 15.4276 21.0008 15.1987 21.0008 14.96L21.0007 12.6818C21.0007 12.441 20.9042 12.2102 20.7328 12.0411L17.2899 8.64467C17.1214 8.47853 16.8944 8.38538 16.6578 8.38538H15.6449V6.06992C15.6449 5.57287 15.242 5.16992 14.7449 5.16992H3.89902ZM19.0933 14.06H19.2008L19.2007 13.0582L16.2886 10.1854H15.6449V14.06H15.7659C16.2235 13.6985 16.8018 13.4829 17.4296 13.4829C18.0574 13.4829 18.6358 13.6985 19.0933 14.06ZM9.09137 14.06H13.8449V9.28538V6.96992H4.79903L4.79909 14.06H5.76398C6.22154 13.6985 6.79989 13.4829 7.42768 13.4829C8.05547 13.4829 8.63382 13.6985 9.09137 14.06ZM7.42768 15.2829C6.93796 15.2829 6.54697 15.6774 6.54697 16.1566C6.54697 16.6359 6.93796 17.0304 7.42768 17.0304C7.91739 17.0304 8.30839 16.6359 8.30839 16.1566C8.30839 15.6774 7.91739 15.2829 7.42768 15.2829ZM17.4296 15.2829C16.9399 15.2829 16.5489 15.6774 16.5489 16.1566C16.5489 16.6359 16.9399 17.0304 17.4296 17.0304C17.9193 17.0304 18.3103 16.6359 18.3103 16.1566C18.3103 15.6774 17.9193 15.2829 17.4296 15.2829Z"/></svg>

<svg xmlns="http://www.w3.org/2000/svg" width="24" height="24"><path fill-rule="evenodd" d="M3.899 5.17a.9.9 0 0 0-.9.9v8.89a.9.9 0 0 0 .9.9h.864a2.677 2.677 0 0 0 2.664 2.97 2.677 2.677 0 0 0 2.665-2.97h4.673a2.677 2.677 0 0 0 2.664 2.97 2.677 2.677 0 0 0 2.665-2.97h.007a.9.9 0 0 0 .9-.9v-2.278a.9.9 0 0 0-.268-.64L17.29 8.644a.9.9 0 0 0-.632-.26h-1.013V6.07a.9.9 0 0 0-.9-.9H3.899Zm15.194 8.89h.108v-1.002l-2.912-2.873h-.644v3.875h.12a2.675 2.675 0 0 1 1.665-.577c.627 0 1.206.215 1.663.577Zm-10.002 0h4.754V6.97H4.799v7.09h.965a2.675 2.675 0 0 1 1.664-.577c.627 0 1.206.215 1.663.577Zm-1.663 1.223c-.49 0-.881.394-.881.874 0 .479.391.873.88.873.49 0 .881-.394.881-.873a.877.877 0 0 0-.88-.874Zm10.002 0c-.49 0-.881.394-.881.874 0 .479.39.873.88.873s.881-.394.881-.873a.877.877 0 0 0-.88-.874Z" clip-rule="evenodd"/></svg>
